X:491
T:Reel 491
M:4/4
K:Amin
L:1/8
A,B,|C>A, (3A,G,A, E,>A, (3A,A,A, |B,G,DC B,G,G,B,||C>A, (3A,A,A, E,>A, (3A,A,A, |B,G,DB, CA,A,:||2A,^G,A,B, CB,CD|EGDB, CA,A,2|G,2G,G, B,DE^F|GEDC B,G,G,2||C>D (3CB,C DB,GD|E2AG ABcA|GAcB AGAF|GEDB, A,2CD:||2ED (3B,CD E2AB|ABAB AGEA|GEDB, A,2|
